symbols/web/admin_panel_settings/materialsymbolsoutlined/admin_panel_settings_wght500gradN25fill1_20px.svg

<svg xmlns="http://www.w3.org/2000/svg" height="20" width="20"><path d="M9.875 18.271q-2.813-.729-4.667-3.292-1.854-2.562-1.854-5.708V4.167l6.667-2.459 6.625 2.459v4.791q-.604-.312-1.261-.479-.656-.167-1.364-.167-2.375 0-4.063 1.688-1.687 1.688-1.687 4.062 0 1.063.5 2.188.5 1.125 1.375 1.938-.042.02-.146.052-.104.031-.125.031Zm4.146-.104q-1.709 0-2.906-1.198-1.198-1.198-1.198-2.907 0-1.708 1.198-2.906 1.197-1.198 2.906-1.198 1.708 0 2.906 1.198 1.198 1.198 1.198 2.906 0 1.709-1.198 2.907t-2.906 1.198Zm0-1.688q.667 0 1.177-.271.51-.27.885-.75-.5-.312-1.01-.458-.511-.146-1.031-.146-.542 0-1.052.146-.511.146-.99.458.354.48.865.75.51.271 1.156.271Zm0-2.437q.5 0 .854-.354.354-.355.354-.855t-.354-.854q-.354-.354-.833-.354-.5 0-.865.354t-.365.854q0 .479.365.844t.844.365Z"/></svg>

<svg xmlns="http://www.w3.org/2000/svg" height="20" width="20"><path d="M9.875 18.271Q7.062 17.542 5.208 14.979Q3.354 12.417 3.354 9.271V4.167L10.021 1.708L16.646 4.167V8.958Q16.042 8.646 15.385 8.479Q14.729 8.312 14.021 8.312Q11.646 8.312 9.958 10Q8.271 11.688 8.271 14.062Q8.271 15.125 8.771 16.25Q9.271 17.375 10.146 18.188Q10.104 18.208 10 18.24Q9.896 18.271 9.875 18.271ZM14.021 18.167Q12.312 18.167 11.115 16.969Q9.917 15.771 9.917 14.062Q9.917 12.354 11.115 11.156Q12.312 9.958 14.021 9.958Q15.729 9.958 16.927 11.156Q18.125 12.354 18.125 14.062Q18.125 15.771 16.927 16.969Q15.729 18.167 14.021 18.167ZM14.021 16.479Q14.688 16.479 15.198 16.208Q15.708 15.938 16.083 15.458Q15.583 15.146 15.073 15Q14.562 14.854 14.042 14.854Q13.5 14.854 12.99 15Q12.479 15.146 12 15.458Q12.354 15.938 12.865 16.208Q13.375 16.479 14.021 16.479ZM14.021 14.042Q14.521 14.042 14.875 13.688Q15.229 13.333 15.229 12.833Q15.229 12.333 14.875 11.979Q14.521 11.625 14.042 11.625Q13.542 11.625 13.177 11.979Q12.812 12.333 12.812 12.833Q12.812 13.312 13.177 13.677Q13.542 14.042 14.021 14.042Z"/></svg>
